packages/tokens/icons/exitIntentModal/size16Px.svg

<svg viewBox="0 0 16 16" fill="none" xmlns="http://www.w3.org/2000/svg" width="1em" height="1em"><path d="M9.5 13.5L11.8333 13.5C12.7538 13.5 13.5 12.7538 13.5 11.8333L13.5 4.16667C13.5 3.24619 12.7538 2.5 11.8333 2.5L4.16665 2.5C3.24617 2.5 2.49998 3.2462 2.49998 4.16668L2.5 6.5M4.5 13.5L4.16664 13.5C3.24616 13.5 2.49997 12.7538 2.49997 11.8333L2.49997 11.5" stroke="currentColor" stroke-linecap="round" stroke-linejoin="round"/><path d="M8.49994 7.5L2.49994 9.5L5.49994 10.5L6.49994 13.5L8.49994 7.5Z" stroke="currentColor" stroke-linecap="round" stroke-linejoin="round"/><path d="M5.5 5.5H10.5" stroke="currentColor" stroke-linecap="round"/></svg>

<svg xmlns="http://www.w3.org/2000/svg" fill="none" viewBox="0 0 16 16" width="1em" height="1em"><path stroke="currentColor" stroke-linecap="round" stroke-linejoin="round" d="M9.5 13.5h2.333c.92 0 1.667-.746 1.667-1.667V4.167c0-.92-.746-1.667-1.667-1.667H4.167c-.92 0-1.667.746-1.667 1.667V6.5m2 7h-.333c-.92 0-1.667-.746-1.667-1.667V11.5"/><path stroke="currentColor" stroke-linecap="round" stroke-linejoin="round" d="m8.5 7.5-6 2 3 1 1 3 2-6Z"/><path stroke="currentColor" stroke-linecap="round" d="M5.5 5.5h5"/></svg>
